icons/arrow-circle-toprightB.svg

<svg width="24" height="24" viewBox="0 0 24 24" fill="none" xmlns="http://www.w3.org/2000/svg">
<path d="M12 21C16.9706 21 21 16.9706 21 12C21 7.02944 16.9706 3 12 3C7.02944 3 3 7.02944 3 12C3 16.9706 7.02944 21 12 21Z" fill="black"/>
<path fill-rule="evenodd" clip-rule="evenodd" d="M12 3.75C7.44365 3.75 3.75 7.44365 3.75 12C3.75 16.5563 7.44365 20.25 12 20.25C16.5563 20.25 20.25 16.5563 20.25 12C20.25 7.44365 16.5563 3.75 12 3.75ZM2.25 12C2.25 6.61522 6.61522 2.25 12 2.25C17.3848 2.25 21.75 6.61522 21.75 12C21.75 17.3848 17.3848 21.75 12 21.75C6.61522 21.75 2.25 17.3848 2.25 12Z" fill="black"/>
<path fill-rule="evenodd" clip-rule="evenodd" d="M9.03315 14.7711C8.74025 14.4782 8.74025 14.0033 9.03315 13.7104L13.2758 9.46776C13.5687 9.17487 14.0436 9.17487 14.3364 9.46776C14.6293 9.76065 14.6293 10.2355 14.3364 10.5284L10.0938 14.7711C9.80091 15.064 9.32604 15.064 9.03315 14.7711Z" fill="white"/>
<path fill-rule="evenodd" clip-rule="evenodd" d="M14.4425 14.213C14.0283 14.213 13.6925 13.8772 13.6925 13.463L13.6925 10.1825L10.412 10.1825C9.99777 10.1825 9.66199 9.84672 9.66199 9.4325C9.66199 9.01829 9.99777 8.6825 10.412 8.6825L13.9475 8.6825C14.6446 8.6825 15.1925 9.23043 15.1925 9.92749L15.1925 13.463C15.1925 13.8772 14.8567 14.213 14.4425 14.213Z" fill="white"/>
</svg>

<svg xmlns="http://www.w3.org/2000/svg" fill="none" viewBox="0 0 24 24">
  <path fill="#000" d="M12 21a9 9 0 1 0 0-18 9 9 0 0 0 0 18Z"/>
  <path fill="#000" fill-rule="evenodd" d="M12 3.75a8.25 8.25 0 1 0 0 16.5 8.25 8.25 0 0 0 0-16.5ZM2.25 12c0-5.385 4.365-9.75 9.75-9.75s9.75 4.365 9.75 9.75-4.365 9.75-9.75 9.75S2.25 17.385 2.25 12Z" clip-rule="evenodd"/>
  <path fill="#fff" fill-rule="evenodd" d="M9.033 14.771a.75.75 0 0 1 0-1.06l4.243-4.243a.75.75 0 1 1 1.06 1.06l-4.242 4.243a.75.75 0 0 1-1.06 0Z" clip-rule="evenodd"/>
  <path fill="#fff" fill-rule="evenodd" d="M14.443 14.213a.75.75 0 0 1-.75-.75v-3.28h-3.281a.75.75 0 1 1 0-1.5h3.535c.698 0 1.246.547 1.246 1.244v3.536a.75.75 0 0 1-.75.75Z" clip-rule="evenodd"/>
</svg>
